!!!OTL: Graf Friedrich In Oesterraaich sin di Gassen sou enge
!!!ARE: Europa, Osteuropa, Ungarn, Wessprim
!!!YOR: 2, S. 217
!!    1932 aufgezeichnet
!!!SCT: Q0048J
!!!YEM: Copyright 1995, estate of Helmut Schaffrath.
**kern
*ICvox
*Ivox
!! Mixed meters:  6/4; 3/4
*M3/4
*k[f#]
*G:
{8g
8b
=1
8dd
8dd
4dd
8dd
8gg
4dd
4dd
4a
=2
4cc
4b}
{8g
8b
=3
*M6/4
8dd
8dd
4dd
8dd
8gg
4dd
4dd
4a
=4
4cc
4b}
{4g
8.ee
16ee
8ee
8ee
8ee
8ff#
=5
4gg
4ff#
4ee
8ee
8gg
4dd}
{4b
=6
4dd
4ee
4dd
4cc
4b
8dd
8a
=7
4ee
4dd
4cc
2b}
==
!!!AGN: Ballade, Hochzeit, Mord / Unfall, Tod
!!!ONB: ESAC (Essen Associative Code) Database: BALLADE
!!!AMT: irregular
!!!AIN: vox
!!!EED: Helmut Schaffrath
!!!EEV: 1.0
*-
